X:1
T:Title
%%score { 1 | 2 }
L:1/8
Q:1/4=100
M:2/4
K:Bb
V:1 treble nm="Grand Piano"
V:2 bass 
V:1
 [DF]2 [B,D][CE] | [DF][EB] [DB]2 | [Fd]2 [FB][EG] | [DF]4 | [DF]2 [B,D][CE] | [DF][EB] [DB]2 | %6
w: Hubert~P.~Main * *||||||
 c2 d>c | [DB]4 | c2 AB | c>d c2 | [GB]2 [FA]>[=EG] | A4 | c2 AB | c>d c2 | [FA]>[FA] [GB][B,=EG] | %15
w: |||||||||
 [A,F]4 | [B,DF]2[K:bass] [F,B,D][F,CE] | [B,DF][DB] [DB]2 | [Fd]>[^Fc] [GB][EG] | [DF]4 | %20
w: |||||
 [EG]2 [GB][EG] | [DF][DB] [Fd]2 | c2 GA | [DB]4 |] %24
w: ||||
V:2
 [B,,F,]2 [B,,F,][B,,F,] | [B,,B,][B,,G,] [B,,F,]2 | [B,,B,]2 [D,B,][E,B,] | [B,,B,]4 | %4
 [B,,F,]2 [B,,F,][B,,F,] | [B,,B,][B,,G,] [B,,F,]2 | [F,A,E]2 [F,A,F]>[F,A,E] | [B,,B,]4 | %8
 [F,A,F]2 [F,CF][F,DF] | [F,A,F]>[F,B,F] [F,A,F]2 | [C,C]2 [C,C]>[C,C] | [F,CF]4 | %12
 [F,A,F]2 [F,CF][F,DF] | [F,A,F]>[F,B,F] [F,A,F]2 | [C,C]>[C,C] [C,C]C, | F,4 | B,,2 B,,B,, | %17
 B,,[B,,F,] [B,,F,]2 | [B,,B,]>[D,A,] [E,G,][E,B,] | [B,,B,]4 | [E,B,]2 [E,B,][E,B,] | %21
 [B,,B,][B,,F,] [B,,B,]2 | [F,A,E]2 [F,CE][F,CE] | [B,,B,]4 |] %24

